X: 643
T: Elmayı Top Top Yapalım
C: (Anonim)
O: Turkey
F: http://compmusic.upf.edu/node/140
N: sehnaz--turku--sofyan--elmayi_top--hendek
N: makam= sehnaz
N: form= turku
N: usul= sofyan = 4/4
M: 4/4
L: 1/16
K: C _7/8B ^1/4f ^c ^g
Q: 1/4=108
%%MIDI tuningsystem comma53
d2d{e}c {d}e{^3/4f}d{e}f{=g}e {f}g{a}f{g}a2 a2a2  | \
w:  ARANAĞME  | 
=g2g^3/4f e2g2 f{e}f{g}f{g}e {f}d4  | 
w:   | 
e3/2=g/=fe {f}d4 egfg e2de  | c3B B2{c}BA A2a=b a=g^3/4fe  | 
w:   |   | 
d2d{e}c {d}e{^3/4f}d{e}f{=g}e {f}g{a}f{g}a2 a2a2  | \
w:  ARANAĞME  | 
=g2g^3/4f e2g2 f{e}f{g}f{g}e {f}d4  | 
w:   | 
e3/2=g/=fe {f}d4 egfg e2de  | c3B B2{c}BA {B}A3e =fga2  | 
w:   |   | 
a4 a2a2 b4 a4  | a4 a2a2 b4 a4  | a4 a2a2 {b}a2g2 =f2e2  | \
w:  El ma yı  top   |  top  ya pa lım    |  Kız la ra  *  bah  | 
e4 =fgfe e3/2f/ed =cBA2  | 
w:  şiş  a *  ta *  lım   SAZ  | 
a4 a2a2 b4 a4  | a4 a2a2 b4 a4  | a4 a2a2 {b}a2g2 =f2e2  | \
w:  El ma yı  top   |  top  ya pa lım    |  Kız la ra  *  bah  | 
e4 =fgfe e3/2f/ed =cde2  | 
w:  şiş  a *  ta  *  lım   SAZ  | 
.d2.d2 .e2.^3/4f2 .=g2.a2 .a2.a2  | \
w:  Ka di fe  de  ce ke ti ni   | 
=g3f e2g2 f3e d2z2  | e2{=g}fe d2d2 egfg e2d2  | 
w:  dar  *  ya pa lım    |  Ne  *  gü *  zel  *  ya *  ra *  şır   | 
{e}c3B B2BA A3=b a=g^3/4fe  | .d2.d2 .e2.^3/4f2 .=g2.a2 .a2.a2  | \
w:  *  in *  ce  be *  le   SAZ  |  Ka di fe  de  ce ke ti ni   | 
=g3f e2g2 f3e d2z2  | 
w:  dar  *  ya pa lım    | 
e2{=g}fe d2d2 egfg e2d2  | {e}c3B B2BA A3=b a=g^3/4fe  | 
w:  Ne  *  gü *  zel  *  ya *  ra *  şır   |  *  in *  ce  be *  le   SAZ  | 
d2d{e}c {d}e{^3/4f}d{e}f{=g}e {f}g{a}f{g}a2 a2a2  | \
w:  ARANAĞME  | 
=g2g^3/4f e2g2 f{e}f{g}f{g}e {f}d4  | 
w:   | 
e3/2=g/=fe {f}d4 egfg e2de  | c3B B2{c}BA A2a=b a=g^3/4fe  | 
w:   |   | 
d2d{e}c {d}e{^3/4f}d{e}f{=g}e {f}g{a}f{g}a2 a2a2  | \
w:  ARANAĞME  | 
=g2g^3/4f e2g2 f{e}f{g}f{g}e {f}d4  | 
w:   | 
e3/2=g/=fe {f}d4 egfg e2de  | c3B B2{c}BA {B}A3e =fga2  | 
w:   |   | 
a4 a2a2 b4 a4  | a4 a2a2 b4 a4  | a4 a2a2 {b}a2g2 =f2e2  | \
w:  El ma yı  top   |  top  ya pa lım    |  Kız la ra  *  bah  | 
e4 =fgfe e3/2f/ed =cBA2  | 
w:  şiş  a *  ta *  lım   SAZ  | 
a4 a2a2 b4 a4  | a4 a2a2 b4 a4  | a4 a2a2 {b}a2g2 =f2e2  | \
w:  El ma yı  top   |  top  ya pa lım    |  Kız la ra  *  bah  | 
e4 =fgfe e3/2f/ed =cde2  | 
w:  şiş  a *  ta  *  lım   SAZ  | 
.d2.d2 .e2.^3/4f2 .=g2.a2 .a2.a2  | \
w:  Ka di fe  de  ce ke ti ni   | 
=g3f e2g2 f3e d2z2  | e2{=g}fe d2d2 egfg e2d2  | 
w:  dar  *  ya pa lım    |  Ne  *  gü *  zel  *  ya *  ra *  şır   | 
{e}c3B B2BA A6z2  | |


